X: 421
%
U:~=!turn!
T: Miss Robertson of Tullybelton's Strathspey
C:Nath. Gow
O:Scotland
B:Keith Norman MacDonald : "The Skye collection of the best reels & strathspeys extant" : 1887
Z:Ralph Palmer
R:Strathspey
M:C
L:1/8
K:Bb
D | ~B,3 B {/d}TcBGB | F<DB>D C/C/C C>D | B,3 B Tc>BG<g | fdTcd B/B/B B :|
g | fbdf Bdfd | e>cd>B G/G/G G>g | fbdf Bdfd | e>cf>d B/B/B Bg |
fbdf Bdfd | e>cd>B G/G/G G>B | FBDB ~FGBg | f>dTc>d B/B/B B |]


